logos/turbopack-icon.svg

<svg preserveAspectRatio="xMidYMid" viewBox="0 0 256 293" xmlns="http://www.w3.org/2000/svg">
  <defs>
    <linearGradient id="turbopack-icon_svg__a" x1="50%" x2="49.855%" y1="7.896%" y2="93.343%">
      <stop offset="0%" stop-color="#0096FF"/>
      <stop offset="100%" stop-color="#FF1E56"/>
    </linearGradient>
  </defs>
  <path fill="url(#turbopack-icon_svg__a)" d="M128 0 46.16 46.768l.16 36.752L128 36.848l96 54.864L256 110V73.136L128 0Zm-14.4 247.488L32 200.864V91.792l-.032-.016-.176-36.8L0 73.136v146.288l81.68 46.672 31.92-18.608ZM224 200.864v-92.56l32 18.288v92.832l-128 73.152-31.888-18.224L128 255.76v-.048l96-54.848Z"/>
  <path d="M46.4 108.369v84.128l81.6 46.64v-84.144z"/>
  <path d="M128 53.44 53.648 95.92l81.616 46.64 74.336-42.495z"/>
</svg>

<?xml version="1.0" encoding="UTF-8"?>
<svg width="256px" height="293px" viewBox="0 0 256 293" version="1.1" xmlns="http://www.w3.org/2000/svg" preserveAspectRatio="xMidYMid">
    <title>Turbopack</title>
    <defs>
        <linearGradient x1="50.000184%" y1="7.89569995%" x2="49.8553456%" y2="93.3433732%" id="turbopackLinearGradient-1">
            <stop stop-color="#0096FF" offset="0%"></stop>
            <stop stop-color="#FF1E56" offset="100%"></stop>
        </linearGradient>
    </defs>
    <g>
        <path d="M128,0 L46.16,46.768 L46.32,83.52 L128,36.848 L224,91.712 L256,110 L256,73.136 L128,0 Z M113.6,247.488 L32,200.864 L32,91.792 L31.968,91.776 L31.792,54.976 L0,73.136 L0,121.904 L0,170.672 L0,219.424 L81.68,266.096 L113.6,247.488 Z M224,200.864 L224,108.304 L256,126.592 L256,170.672 L256,219.424 L128,292.576 L96.112,274.352 L128,255.76 L128,255.712 L224,200.864 Z" fill="url(#turbopackLinearGradient-1)"></path>
        <polygon fill="#000000" points="46.4 108.368615 46.4 192.496615 128 239.136615 128 154.992615"></polygon>
        <polygon fill="#000000" points="128 53.4406154 53.648 95.9206154 135.264 142.560615 209.6 100.064615"></polygon>
    </g>
</svg>
